!!!OTL: 388. Wunsch.
!!!COM: Fr. Kuecken
!!!ARE: Europa, Mitteleuropa, Deutschland
!!!SCT: B0388
!!!TXL: @@DE
!!!YEM: Copyright 1995, estate of Helmut Schaffrath.
**kern	**text
*ICvox	*
*Ivox	*
*clefG2	*
*M4/4	*
*met(c)	*
*k[f#]	*
*G:	*
!LO:TX:a:t=Gemeſſen.	!
{4d	Ach,
=1	=1
4b	wenn
4b	du
4b	wärſt
8ccL	mein
8bJ	.
=2	=2
2a	ei-
4e}	-gen,
{4e	wie
=3	=3
(>4d	lieb
16eqqL	.
16dqqJ	.
8c#)	.
8d	ſollt'ſt
4b	du
4a	mir
=4	=4
2g	ſein!
4r}	.
{4d	Wie
=5	=5
4b	wollt'
4b	ich
4b	tief
8ccL	im
8bJ	.
=6	=6
2a	Her-
4e}	-ʒen
{4e	nur
=7	=7
(>4d	tra-
16eqqL	.
16dqqJ	.
8c#)	.
8d	-gen
4b	dich
4a	al-
=8	=8
2g	-lein,
4r}	.
{4b	und
=9	=9
4.b	al-
8a	-le
4g	Wonn'
4f#	und
=10	=10
4f#	al-
8g#L	-les
8a#J	.
4b}	Glück
{4b	nur
=11	=11
4.cc#	ſchö-
8b	-pfen
4an	mir
4a	aus
=12	=12
4.b/	dei-
8a	-nem
4f#}	Blick!
{4a	Ach
=13	=13
4.a	wenn
8g	du
4f#	wärſt
4f#	mein
=14	=14
2a	ei-
4g}	-gen,
{4e	wie
=15	=15
(>4d	lieb
16eqqL	.
16dqqJ	.
8c#)	.
8d	ſollt'ſt
4b	du
4a	mir
=16	=16
2g	ſein!
4r}	.
==	==
!!!AGN: Liebes - Lied, Liebes - Lust
!!!GTL: Liebeslieder - Liebeslust
!!!ONB: ESAC (Essen Associative Code) Database: BOEHME
!!!AMT: simple quadruple
!!!AIN: vox
!!!EED: Helmut Schaffrath
!!!EEV: 1.0
!!!RDF**kern: > = above
!!@@COMMENT:"Gedichtet 1835 von Jda Gräfin Hahn-Hahn. Jn den Gedichten derſelben, Leipʒig 1835, ge-
!!druckt, S. 96. Die viel geſungene Melodie iſt von Fr. Kücken. Auf ſie dichtete Hoffmann v. F.
!!ſein Vaterlandslied: "Wie könnt' ich dein vergeſſen"."
!!@@END:
!!!Text: Jda Gräfin Hahn-Hahn
!!!URL-scan: https://archive.org/details/BoehmeVtLieder1895/page/n323/mode/2up
!!!ENC: Anna Maria Matuszewska
!!!EEV: 2024/08/07
*-	*-
